X: 7949
T:a Trip to Carlisle
N:Can be played in D
M:6/8
O:England
A:North-West
R:Jig
K:F
F|\
FGF cAF| dBG cAF| FGF cAF| fga g2F|\
FGF cAF| dBG cAF| def gfe| f3 f2::\
c|\
cdc gec| afd gec| cdc gec| b2a g2c| \
cdc gec| afd gec| def efg| f3 f2:|
